images/icons/flags/de.svg

<svg id="Capa_1" enable-background="new 0 0 512 512" height="512" viewBox="0 0 512 512" width="512" xmlns="http://www.w3.org/2000/svg"><g><path d="m512 200.946v-93.591c0-9.122-7.395-16.516-16.516-16.516h-478.968l-8.849 16.516v93.591l17.104 22.022h462.456z" fill="#5d5360"/><path d="m0 107.355v93.591l16.516 14.683v-124.79c-9.121 0-16.516 7.394-16.516 16.516z" fill="#4b3f4e"/><path d="m7.817 311.054v86.43c0 9.122 7.395 16.516 16.516 16.516h471.151l16.516-9.355v-93.591l-24.77-22.022h-462.456z" fill="#ffe07d"/><path d="m16.516 355.097v-58.724l-16.516 14.681v93.591c0 9.122 7.395 16.516 16.516 16.516h478.968c9.121 0 16.516-7.394 16.516-16.516h-445.935c-27.365 0-49.549-22.183-49.549-49.548z" fill="#ffd064"/><path d="m8.667 297 7.849 14.053h495.484v-110.107h-495.484l-7.849 17.387z" fill="#e5646e"/><path d="m0 200.946h16.516v110.107h-16.516z" fill="#db4655"/></g></svg>

<svg xmlns="http://www.w3.org/2000/svg" width="512" height="512"><defs/><path fill="#5d5360" d="M512 200.946v-93.591c0-9.122-7.395-16.516-16.516-16.516H16.516l-8.849 16.516v93.591l17.104 22.022h462.456z"/><path fill="#4b3f4e" d="M0 107.355v93.591l16.516 14.683V90.839C7.395 90.839 0 98.233 0 107.355z"/><path fill="#ffe07d" d="M7.817 311.054v86.43c0 9.122 7.395 16.516 16.516 16.516h471.151L512 404.645v-93.591l-24.77-22.022H24.774z"/><path fill="#ffd064" d="M16.516 355.097v-58.724L0 311.054v93.591c0 9.122 7.395 16.516 16.516 16.516h478.968c9.121 0 16.516-7.394 16.516-16.516H66.065c-27.365 0-49.549-22.183-49.549-49.548z"/><path fill="#e5646e" d="M8.667 297l7.849 14.053H512V200.946H16.516l-7.849 17.387z"/><path fill="#db4655" d="M0 200.946h16.516v110.107H0z"/></svg>
